tehsnab/img/kav.svg

<svg width="44" height="41" viewBox="0 0 44 41" fill="none" xmlns="http://www.w3.org/2000/svg">
<path opacity="0.1" d="M8.58533 10.7382L8.58496 38.6433C8.58495 39.5131 9.74092 39.9486 10.417 39.3337L15.1541 35.0246C15.7579 34.4754 16.5768 34.1668 17.4306 34.1668H40.7801C42.5582 34.1668 43.9996 32.8557 43.9996 31.2382V10.7382C43.9996 9.12083 42.5582 7.80966 40.7801 7.80966H11.8049C10.0268 7.80966 8.58535 9.12081 8.58533 10.7382Z" fill="#2970E1"/>
<path d="M7.59827 25.9033L7.59822 25.9034L2.07326 30.929L2.0736 5.85713C2.07362 3.80078 3.93704 1.97623 6.43945 1.97623H30.0488C32.5513 1.97623 34.4147 3.80082 34.4147 5.85718V21.4762C34.4147 23.5326 32.5512 25.3572 30.0488 25.3572H9.02994C8.50898 25.3572 7.99265 25.5446 7.59827 25.9033Z" stroke="#2970E1" stroke-width="2"/>
<path d="M10.6582 16.5952V16.0996C10.6582 15.4073 10.9408 14.7219 11.4806 14.1812L10.8165 13.5184L11.4806 14.1812L15.0972 10.5579V14.5914V16.5952C15.0972 17.0341 14.6753 17.5475 13.9509 17.5475H11.8045C11.0802 17.5475 10.6582 17.0341 10.6582 16.5952Z" stroke="#2970E1" stroke-width="2"/>
<path d="M21.3906 16.5952V16.0996C21.3906 15.4073 21.6733 14.722 22.213 14.1812C22.213 14.1812 22.213 14.1812 22.213 14.1812L25.8296 10.5579V14.5914V16.5952C25.8296 17.0341 25.4077 17.5475 24.6833 17.5475H22.537C21.8126 17.5475 21.3906 17.0341 21.3906 16.5952Z" stroke="#2970E1" stroke-width="2"/>
</svg>

<svg width="44" height="41" fill="none" xmlns="http://www.w3.org/2000/svg"><path opacity=".1" d="M8.585 10.738v27.905c0 .87 1.156 1.306 1.832.69l4.737-4.308a3.389 3.389 0 012.277-.858h23.35c1.777 0 3.219-1.311 3.219-2.929v-20.5c0-1.617-1.442-2.928-3.22-2.928H11.805c-1.778 0-3.22 1.31-3.22 2.928z" fill="#2970E1"/><path d="M7.598 25.903h0L2.073 30.93V5.857c0-2.056 1.864-3.88 4.366-3.88h23.61c2.502 0 4.366 1.824 4.366 3.88v15.62c0 2.056-1.864 3.88-4.366 3.88H9.029a2.13 2.13 0 00-1.43.546z" stroke="#2970E1" stroke-width="2"/><path d="M10.658 16.595V16.1c0-.693.283-1.378.823-1.919l-.665-.663.665.663 3.616-3.623v6.037c0 .44-.422.953-1.146.953h-2.146c-.725 0-1.147-.514-1.147-.953zm10.732 0V16.1c0-.693.283-1.378.823-1.919 0 0 0 0 0 0l3.617-3.623v6.037c0 .44-.422.953-1.147.953h-2.146c-.724 0-1.146-.514-1.146-.953z" stroke="#2970E1" stroke-width="2"/></svg>
